build/Karasa-Jaga/scalable/apps/unity-tweak-tool-unity-symbolic.svg

<svg height="16" width="16" xmlns="http://www.w3.org/2000/svg"><g fill="#777" transform="translate(0 -48)"><path d="m15.568367 55.444443c-.401767.10044-.935356.27307-1.600759.386065-.652863.112994-1.271192.169491-2.137476.169491-.7533 0-1.394891-.175506-1.909639-.388939-.514755-.225989-.9290672-.539862-1.2429378-.94162-.3138752-.401756-.5398637-.872566-.6779661-1.412429-.1381057-.552414-.2071563-1.161328-.2071563-1.826742v-5.499059h1.426843v5.122411c0 1.192721.2750829 2.046462.6517341 2.561211.3766441.514754 1.2560411.840912 2.1474461.840911.188318.000001.382919-.0063.583804-.01883.200872-.01255.389196-.02511.564972-.03767.175762-.02511.332698-.04394.470809-.0565.150652-.02511.512403-.05022.575185-.07533v-8.336203h1.426843v9.28572" transform="matrix(1.401696 0 0 1.3999991 -7.922622 -15.303655)"/><rect height="2" ry=".451667" width="3" x="7" y="49"/><rect height="2" ry=".451667" width="3" x="7" y="53"/><path d="m7.4375 9c-.2502233 0-.4375.1872767-.4375.4375v.5625c0 .552285.4477153 1 1 1h1.5625c.2502233 0 .4375-.187277.4375-.4375v-1.125c0-.2502233-.1872767-.4375-.4375-.4375h-1.5625z" transform="translate(0 48)"/></g></svg>

<?xml version="1.0" encoding="UTF-8" standalone="no"?>
<!-- Created with Inkscape (http://www.inkscape.org/) -->

<svg
   xmlns:dc="http://purl.org/dc/elements/1.1/"
   xmlns:cc="http://creativecommons.org/ns#"
   xmlns:rdf="http://www.w3.org/1999/02/22-rdf-syntax-ns#"
   xmlns:svg="http://www.w3.org/2000/svg"
   xmlns="http://www.w3.org/2000/svg"
   xmlns:sodipodi="http://sodipodi.sourceforge.net/DTD/sodipodi-0.dtd"
   xmlns:inkscape="http://www.inkscape.org/namespaces/inkscape"
   width="16"
   height="16"
   id="svg2985"
   version="1.1"
   inkscape:version="0.48.4 r9939"
   sodipodi:docname="unity-tweak-tool-unity-symbolic.svg">
  <defs
     id="defs2987" />
  <sodipodi:namedview
     id="base"
     pagecolor="#ffffff"
     bordercolor="#666666"
     borderopacity="1.0"
     inkscape:pageopacity="0"
     inkscape:pageshadow="2"
     inkscape:zoom="1"
     inkscape:cx="10.230114"
     inkscape:cy="11.364049"
     inkscape:current-layer="layer1"
     showgrid="false"
     inkscape:document-units="px"
     inkscape:grid-bbox="true"
     inkscape:window-width="1366"
     inkscape:window-height="711"
     inkscape:window-x="0"
     inkscape:window-y="27"
     inkscape:window-maximized="1"
     inkscape:snap-bbox="true">
    <inkscape:grid
       type="xygrid"
       id="grid2982"
       empspacing="5"
       visible="true"
       enabled="true"
       snapvisiblegridlinesonly="true" />
  </sodipodi:namedview>
  <metadata
     id="metadata2990">
    <rdf:RDF>
      <cc:Work
         rdf:about="">
        <dc:format>image/svg+xml</dc:format>
        <dc:type
           rdf:resource="http://purl.org/dc/dcmitype/StillImage" />
        <dc:title />
      </cc:Work>
    </rdf:RDF>
  </metadata>
  <g
     id="layer1"
     inkscape:label="Layer 1"
     inkscape:groupmode="layer"
     transform="translate(0,-48)">
    <g
       style="font-size:18.83239174px;font-style:normal;font-variant:normal;font-weight:normal;font-stretch:normal;line-height:125%;letter-spacing:0px;word-spacing:0px;fill:#777777;fill-opacity:1;stroke:none;font-family:Ubuntu;-inkscape-font-specification:Ubuntu"
       id="text2986"
       transform="matrix(1.401696,0,0,1.3999991,-7.9226218,-15.303655)">
      <path
         inkscape:connector-curvature="0"
         d="m 15.568367,55.444443 c -0.401767,0.10044 -0.935356,0.27307 -1.600759,0.386065 -0.652863,0.112994 -1.271192,0.169491 -2.137476,0.169491 -0.7533,0 -1.394891,-0.175506 -1.909639,-0.388939 C 9.405738,55.385071 8.9914258,55.071198 8.6775552,54.66944 8.36368,54.267684 8.1376915,53.796874 7.9995891,53.257011 7.8614834,52.704597 7.7924328,52.095683 7.7924328,51.430269 l 0,-5.499059 1.426843,0 0,5.122411 c 0,1.192721 0.2750829,2.046462 0.6517341,2.561211 0.3766441,0.514754 1.2560411,0.840912 2.1474461,0.840911 0.188318,1e-6 0.382919,-0.0063 0.583804,-0.01883 0.200872,-0.01255 0.389196,-0.02511 0.564972,-0.03767 0.175762,-0.02511 0.332698,-0.04394 0.470809,-0.0565 0.150652,-0.02511 0.512403,-0.05022 0.575185,-0.07533 l 0,-8.336203 1.426843,0 0,9.28572"
         style="fill:#777777;fill-opacity:1"
         id="path2991"
         sodipodi:nodetypes="ccscscsccscsccccccc" />
    </g>
    <rect
       style="opacity:1;color:#000000;fill:#777777;fill-opacity:1;fill-rule:nonzero;stroke:none;stroke-width:7;marker:none;visibility:visible;display:inline;overflow:visible;enable-background:new"
       id="rect3047"
       width="3"
       height="2"
       x="7"
       y="1"
       transform="translate(0,48)"
       ry="0.45166668" />
    <rect
       ry="0.45166668"
       y="53"
       x="7"
       height="2"
       width="3"
       id="rect3052"
       style="opacity:1;color:#000000;fill:#777777;fill-opacity:1;fill-rule:nonzero;stroke:none;stroke-width:7;marker:none;visibility:visible;display:inline;overflow:visible;enable-background:new" />
    <path
       style="opacity:1;color:#000000;fill:#777777;fill-opacity:1;fill-rule:nonzero;stroke:none;stroke-width:7;marker:none;visibility:visible;display:inline;overflow:visible;enable-background:new"
       d="M 7.4375 9 C 7.1872767 9 7 9.1872767 7 9.4375 L 7 10 C 7 10.552285 7.4477153 11 8 11 L 9.5625 11 C 9.8127233 11 10 10.812723 10 10.5625 L 10 9.4375 C 10 9.1872767 9.8127233 9 9.5625 9 L 8 9 L 7.4375 9 z "
       transform="translate(0,48)"
       id="rect3054" />
  </g>
</svg>
